icons/midnadark/apps/48/libreoffice-writer.svg

<?xml version="1.0" encoding="UTF-8" standalone="no"?>
<!-- Created with Inkscape (http://www.inkscape.org/) -->

<svg
   xmlns:osb="http://www.openswatchbook.org/uri/2009/osb"
   xmlns:dc="http://purl.org/dc/elements/1.1/"
   xmlns:cc="http://creativecommons.org/ns#"
   xmlns:rdf="http://www.w3.org/1999/02/22-rdf-syntax-ns#"
   xmlns:svg="http://www.w3.org/2000/svg"
   xmlns="http://www.w3.org/2000/svg"
   xmlns:xlink="http://www.w3.org/1999/xlink"
   xmlns:sodipodi="http://sodipodi.sourceforge.net/DTD/sodipodi-0.dtd"
   xmlns:inkscape="http://www.inkscape.org/namespaces/inkscape"
   width="48"
   height="48"
   id="svg5453"
   version="1.1"
   inkscape:version="0.91 r13725"
   sodipodi:docname="libreoffice-writer.svg">
  <defs
     id="defs5455">
    <linearGradient
       osb:paint="gradient"
       id="linearGradient4207">
      <stop
         id="stop3371"
         offset="0"
         style="stop-color:#3498db;stop-opacity:1;" />
      <stop
         id="stop3373"
         offset="1"
         style="stop-color:#3498db;stop-opacity:0;" />
    </linearGradient>
    <linearGradient
       inkscape:collect="always"
       xlink:href="#linearGradient4320"
       id="linearGradient4738-6-1"
       x1="-123.9715"
       y1="73.496605"
       x2="-125.19291"
       y2="-26.047026"
       gradientUnits="userSpaceOnUse" />
    <linearGradient
       inkscape:collect="always"
       xlink:href="#linearGradient4237-67"
       id="linearGradient4608"
       gradientUnits="userSpaceOnUse"
       gradientTransform="translate(-28.434456,36.349091)"
       x1="38.800407"
       y1="14.249936"
       x2="38.541626"
       y2="-37.095875" />
    <linearGradient
       id="linearGradient4237-67">
      <stop
         offset="0"
         style="stop-color:#1e56e6;stop-opacity:1"
         id="stop4239-85" />
      <stop
         offset="1"
         style="stop-color:#1f9aed;stop-opacity:1"
         id="stop4241-07" />
    </linearGradient>
    <linearGradient
       inkscape:collect="always"
       xlink:href="#linearGradient4750"
       id="linearGradient4610"
       gradientUnits="userSpaceOnUse"
       gradientTransform="matrix(1.2127051,0,0,1.2127051,-9.7933672,-0.22929607)"
       x1="46.037296"
       y1="15.657343"
       x2="46.042"
       y2="1.0779999" />
    <linearGradient
       id="linearGradient4750">
      <stop
         id="stop4752"
         style="stop-color:#1f81ea;stop-opacity:1"
         offset="0" />
      <stop
         id="stop4754"
         style="stop-color:#1f98ed;stop-opacity:1"
         offset="1" />
    </linearGradient>
    <linearGradient
       inkscape:collect="always"
       id="linearGradient4320">
      <stop
         style="stop-color:#dce2ff;stop-opacity:1"
         offset="0"
         id="stop4322" />
      <stop
         style="stop-color:#f8feff;stop-opacity:1"
         offset="1"
         id="stop4324" />
    </linearGradient>
  </defs>
  <sodipodi:namedview
     id="base"
     pagecolor="#5a5a5a"
     bordercolor="#666666"
     borderopacity="1.0"
     inkscape:pageopacity="0"
     inkscape:pageshadow="2"
     inkscape:zoom="4.3179308"
     inkscape:cx="76.137282"
     inkscape:cy="27.306194"
     inkscape:document-units="px"
     inkscape:current-layer="layer1"
     showgrid="false"
     fit-margin-top="0"
     fit-margin-left="0"
     fit-margin-right="0"
     fit-margin-bottom="0"
     inkscape:window-width="1366"
     inkscape:window-height="687"
     inkscape:window-x="0"
     inkscape:window-y="0"
     inkscape:window-maximized="1"
     inkscape:showpageshadow="false"
     borderlayer="true"
     showguides="false"
     inkscape:snap-bbox="true"
     inkscape:snap-bbox-edge-midpoints="true"
     showborder="false">
    <inkscape:grid
       type="xygrid"
       id="grid4063" />
    <sodipodi:guide
       position="1.1650391e-05,47.999996"
       orientation="4,0"
       id="guide4146" />
    <sodipodi:guide
       position="1.1650391e-05,43.999996"
       orientation="0,48"
       id="guide4148" />
    <sodipodi:guide
       position="48.000012,43.999996"
       orientation="-4,0"
       id="guide4150" />
    <sodipodi:guide
       position="48.000012,47.999996"
       orientation="0,-48"
       id="guide4152" />
    <sodipodi:guide
       position="1.1650391e-05,4.0000264"
       orientation="4,0"
       id="guide4154" />
    <sodipodi:guide
       position="1.1650391e-05,2.6367188e-05"
       orientation="0,48"
       id="guide4156" />
    <sodipodi:guide
       position="48.000012,2.6367188e-05"
       orientation="-4,0"
       id="guide4158" />
    <sodipodi:guide
       position="48.000012,4.0000264"
       orientation="0,-48"
       id="guide4160" />
    <sodipodi:guide
       position="48.000012,48.000026"
       orientation="0,-4"
       id="guide4162" />
    <sodipodi:guide
       position="44.000012,48.000026"
       orientation="48,0"
       id="guide4164" />
    <sodipodi:guide
       position="44.000012,2.6367188e-05"
       orientation="0,4"
       id="guide4166" />
    <sodipodi:guide
       position="48.000012,2.6367188e-05"
       orientation="-48,0"
       id="guide4168" />
    <sodipodi:guide
       position="4.0000422,48.000026"
       orientation="0,-4"
       id="guide4170" />
    <sodipodi:guide
       position="4.2167969e-05,48.000026"
       orientation="48,0"
       id="guide4172" />
    <sodipodi:guide
       position="4.2167969e-05,2.6367188e-05"
       orientation="0,4"
       id="guide4174" />
    <sodipodi:guide
       position="4.0000422,2.6367188e-05"
       orientation="-48,0"
       id="guide4176" />
  </sodipodi:namedview>
  <metadata
     id="metadata5458">
    <rdf:RDF>
      <cc:Work
         rdf:about="">
        <dc:format>image/svg+xml</dc:format>
        <dc:type
           rdf:resource="http://purl.org/dc/dcmitype/StillImage" />
        <dc:title />
      </cc:Work>
    </rdf:RDF>
  </metadata>
  <g
     inkscape:label="Capa 1"
     inkscape:groupmode="layer"
     id="layer1"
     transform="translate(-384.57143,-499.798)">
    <g
       transform="matrix(0.96853196,0,0,0.96853196,319.49232,500.55323)"
       id="g5934">
      <rect
         transform="matrix(0.4643084,0,0,0.4643084,150.81033,13.409708)"
         style="opacity:1;fill:url(#linearGradient4738-6-1);fill-opacity:1.0;fill-rule:evenodd;stroke:none;stroke-width:8;stroke-linecap:round;stroke-linejoin:round;stroke-miterlimit:4;stroke-dasharray:none;stroke-dashoffset:0;stroke-opacity:1"
         id="rect4177-3-0"
         width="97.100838"
         height="100.45968"
         x="-175.27007"
         y="-27.421095"
         ry="6.2409248" />
      <path
         style="opacity:1;fill:none;fill-opacity:1;fill-rule:evenodd;stroke:url(#linearGradient4608);stroke-width:3;stroke-linecap:round;stroke-linejoin:round;stroke-miterlimit:4;stroke-dasharray:none;stroke-dashoffset:0;stroke-opacity:1"
         d="m 3.7843714,0 34.1399206,0 6.291337,0 c 1.651992,0 2.981936,1.3299437 2.981936,2.9819365 l 0,42.0361275 C 47.197565,46.670056 45.867621,48 44.215629,48 L 3.7843714,48 C 2.1323786,48 0.80243492,46.670056 0.80243492,45.018064 l 0,-42.0361275 C 0.80243492,1.3299437 2.1323786,0 3.7843714,0 Z"
         id="rect4177-3-2-4"
         inkscape:connector-curvature="0"
         sodipodi:nodetypes="scssssssss"
         transform="matrix(0.97175572,0,0,0.97175572,68.651193,0.67786272)" />
      <path
         transform="translate(67.97333,0)"
         sodipodi:nodetypes="cccc"
         inkscape:connector-curvature="0"
         id="path4479-8"
         d="M 26.107226,1.090828 46.036295,18.758443 46.042,1.078 Z"
         style="fill:url(#linearGradient4610);fill-opacity:1;fill-rule:evenodd;stroke:none;stroke-width:1px;stroke-linecap:butt;stroke-linejoin:miter;stroke-opacity:1" />
      <path
         inkscape:connector-curvature="0"
         d="m 80.473332,32.690033 0,5.122967 5.122969,0 12.93878,-12.938783 -5.122967,-5.122969 z M 103.06694,20.358779 c 0.54185,-0.541852 0.54185,-1.395681 0,-1.937534 L 99.86508,15.21939 c -0.54185,-0.541853 -1.395672,-0.541853 -1.937525,0 l -2.67643,2.692842 5.122975,5.12297 z"
         id="path4-0-7"
         sodipodi:nodetypes="cccccccsscccc"
         style="display:inline;opacity:1;fill:#1e70e9;fill-opacity:1;stroke:none;enable-background:new" />
    </g>
  </g>
</svg>

<svg xmlns="http://www.w3.org/2000/svg" viewBox="0 0 48 48"><defs><linearGradient id="0" x1="93.25" y1="47.535" x2="92.68" y2="1.316" gradientUnits="userSpaceOnUse"><stop stop-color="#dce2ff"/><stop offset="1" stop-color="#f8feff"/></linearGradient><linearGradient id="1" gradientUnits="userSpaceOnUse" x1="10.366" y1="50.599" x2="10.11" y2="-.747"><stop stop-color="#1e56e6"/><stop offset="1" stop-color="#1f9aed"/></linearGradient><linearGradient id="2" gradientUnits="userSpaceOnUse" y1="18.758" x2="0" y2="1.078"><stop stop-color="#1f81ea"/><stop offset="1" stop-color="#1f98ed"/></linearGradient></defs><g transform="matrix(.96853 0 0 .96853-65.08.755)"><g fill-rule="evenodd"><rect width="45.08" height="46.644" x="69.43" y=".678" fill="url(#0)" rx="2.898" stroke-width=".464"/><path d="m3.784 0h34.14 6.291c1.652 0 2.982 1.33 2.982 2.982v42.04c0 1.652-1.33 2.982-2.982 2.982h-40.43c-1.652 0-2.982-1.33-2.982-2.982v-42.04c0-1.652 1.33-2.982 2.982-2.982" transform="matrix(.97176 0 0 .97176 68.65.678)" fill="none" stroke="url(#1)" stroke-linejoin="round" stroke-linecap="round" stroke-width="3"/><path transform="translate(67.973)" d="m26.11 1.091l19.929 17.668.006-17.68" fill="url(#2)"/></g><path d="m80.47 32.69v5.123h5.123l12.939-12.939-5.123-5.123zm22.594-12.331c.542-.542.542-1.396 0-1.938l-3.202-3.202c-.542-.542-1.396-.542-1.938 0l-2.676 2.693 5.123 5.123z" fill="#1e70e9"/></g></svg>
